X: 36002
T: Sausage Factory, The
R: jig
M: 6/8
K: Eminor
"Em"EGB EGB|"G"dcB "D"AFD|"Em"EGB EGB|"Am"cBA "Em"B3|
"Em"EGB EGB|"G"dcB "D"AFG|"Am"cBA "Em"BGE|"D"AGF "Em"E3:|
"Em"eee "G"dBG|"Em"eee "Bm"fed|"Em"eee "G"dBG|"Am"cBA "Em"B3|
"Em"eee "G"dBG|"Em"eee "Bm"fed|"Am"cBA "Em"BGE|"D"AGF "Em"E3:|

